tag-arrow-right.svg

<svg fill="currentColor" viewBox="0 0 24 24"><path d="m21.41 11.58-9-9C12.04 2.21 11.53 2 11 2H4c-1.1 0-2 .9-2 2v7c0 .53.21 1.04.59 1.41l.41.4c.9-.54 1.94-.81 3-.81 3.31 0 6 2.69 6 6 0 1.06-.28 2.09-.82 3l.4.4c.37.38.89.6 1.42.6s1.04-.21 1.41-.59l7-7c.38-.37.59-.88.59-1.41s-.21-1.04-.59-1.42M5.5 7C4.67 7 4 6.33 4 5.5S4.67 4 5.5 4 7 4.67 7 5.5 6.33 7 5.5 7M6 17H2v2h4v2l3-3-3-3z"/></svg>

<svg  viewBox="0 0 24 24" fill="currentColor"><path  d="M21.41 11.58L12.41 2.58C12.04 2.21 11.53 2 11 2H4C2.9 2 2 2.9 2 4V11C2 11.53 2.21 12.04 2.59 12.41L3 12.81C3.9 12.27 4.94 12 6 12C9.31 12 12 14.69 12 18C12 19.06 11.72 20.09 11.18 21L11.58 21.4C11.95 21.78 12.47 22 13 22S14.04 21.79 14.41 21.41L21.41 14.41C21.79 14.04 22 13.53 22 13S21.79 11.96 21.41 11.58M5.5 7C4.67 7 4 6.33 4 5.5S4.67 4 5.5 4 7 4.67 7 5.5 6.33 7 5.5 7M6 17H2V19H6V21L9 18L6 15V17Z"/></svg>
